X:1
T:Conformity, LM
T:Conformity, LM
T:A Compilation of Genuine Church Music, 1832
T:Public Domain Courtesy of the Cyber Hymnal™
C:A Compilation of Genuine Church Music, 1832
Z:Public Domain
Z:Courtesy of the Cyber Hymnal™
%%score ( 1 2 ) ( 3 4 )
L:1/8
Q:1/4=130
M:4/4
K:C
V:1 treble 
V:2 treble 
V:3 bass 
V:4 bass 
V:1
 ([EG]3 [FA]) | [Gc]4 ([Ge]2 [Ac]2) | [Gc]4 ([EG]2 [FA]2) | [Gc]4 [CE]2 [DF]2 | %4
 [DG]4 ([EG]3 [FA]) | [Ec]4 ([Ae]2 [Fc]2) | [Fc]4 A4 | [Gc]4 [Gd]4 | [Ge]4 [Ge]4 | [Gg]4 [cg]4 | %10
 ([ce]2 [Bd]2) ([Ac]2 [Bd]2) | [ce]4 ([Bd]2 [ce]2) | G4 (E2 G2) | [EA]4 [Ec]4 | [Ee]6 [Gd]2 | %15
 [Ac]4 G4 | [Gc]4 |] %17
V:2
 x4 | x8 | x8 | x8 | x8 | x8 | x4 (G2 A2) | x8 | x8 | x8 | x8 | x8 | G4 E4 | x8 | x8 | x4 G4 | %16
 x4 |] %17
V:3
 [C,C]4 | [C,E]4 [C,E]4 | [C,E]4 ([G,G]2 [F,F]2) | [E,E]4 [C,E]4 | [G,D]4 D4 | [E,E]4 (E2 C2) | %6
 [F,A,]4 [G,D]4 | [CE]4 [G,D]4 | [C,C]4 C4 | [CE]4 [CE]4 | ([CE]2 [B,D]2) E4 | %11
 [E,G]4 ([D,G]2 [C,E]2) | [G,D]4 E4 | [C,C]4 [C,C]4 | [CG]6 [G,G]2 | [A,E]4 [G,D]4 | [C,E]4 |] %17
V:4
 x4 | x8 | x8 | x8 | x4 (G,3 F,) | x4 A,4 | x8 | x8 | x4 C4 | x8 | x4 (A,2 G,2) | x8 | %12
 x4 (G,2 E,2) | x8 | x8 | x8 | x4 |] %17

